flaticon/constructions/voltmeter-2.svg

<svg xmlns="http://www.w3.org/2000/svg" width="32" height="32" viewBox="0 0 24 24">
    <path d="M 22 1 L 2 1 C 0.878906 1 0 1.878906 0 3 L 0 21 C 0 22.121094 0.878906 23 2 23 L 22 23 C 23.121094 23 24 22.121094 24 21 L 24 3 C 24 1.878906 23.121094 1 22 1 Z M 23.199219 21 C 23.199219 21.679688 22.679688 22.199219 22 22.199219 L 2 22.199219 C 1.320312 22.199219 0.800781 21.679688 0.800781 21 L 0.800781 3 C 0.800781 2.320312 1.359375 1.800781 2 1.800781 L 22 1.800781 C 22.679688 1.800781 23.199219 2.320312 23.199219 3 Z M 23.199219 21"/>
    <path d="M20.800781 3L3.199219 3C2.519531 3 2 3.519531 2 4.199219L2 13.800781C2 14.480469 2.519531 15 3.199219 15L20.800781 15C21.480469 15 22 14.480469 22 13.800781L22 4.199219C22 3.519531 21.480469 3 20.800781 3zM10.039062 14.199219C10.238281 13.28125 11.039062 12.601562 12 12.601562 12.960938 12.601562 13.761719 13.28125 13.960938 14.199219zM21.199219 13.800781C21.199219 14.039062 21.039062 14.199219 20.800781 14.199219L14.773438 14.199219C14.664062 13.433594 14.253906 12.773438 13.664062 12.339844L16.554688 7.042969C17.703125 7.492188 18.777344 8.117188 19.761719 8.921875 19.921875 9.039062 20.199219 9 20.320312 8.839844 20.441406 8.679688 20.398438 8.398438 20.238281 8.28125 19.21875 7.46875 18.109375 6.820312 16.933594 6.347656L17.558594 5.199219C17.679688 5 17.601562 4.761719 17.398438 4.640625 17.199219 4.558594 16.960938 4.601562 16.839844 4.800781L16.160156 6.0625C14.835938 5.625 13.441406 5.398438 12 5.398438 9.039062 5.398438 6.121094 6.441406 3.761719 8.320312 3.558594 8.441406 3.558594 8.71875 3.679688 8.878906 3.761719 9 3.878906 9.039062 4 9.039062 4.078125 9.039062 4.199219 9.039062 4.238281 8.960938 6.480469 7.199219 9.238281 6.199219 12 6.199219 13.308594 6.199219 14.578125 6.390625 15.777344 6.765625L12.96875 11.96875C12.667969 11.859375 12.339844 11.800781 12 11.800781 10.574219 11.800781 9.417969 12.832031 9.226562 14.199219L3.199219 14.199219C2.960938 14.199219 2.800781 14.039062 2.800781 13.800781L2.800781 4.199219C2.800781 4 3 3.800781 3.199219 3.800781L20.800781 3.800781C21.039062 3.800781 21.199219 3.960938 21.199219 4.199219zM18.800781 16.199219C17.480469 16.199219 16.398438 17.28125 16.398438 18.601562 16.398438 19.921875 17.480469 21 18.800781 21 19.0625 21 19.316406 20.957031 19.554688 20.878906 19.609375 20.871094 19.640625 20.847656 19.640625 20.878906 19.960938 20.761719 20.238281 20.601562 20.480469 20.359375 20.585938 20.230469 20.695312 20.089844 20.789062 19.9375 21.046875 19.554688 21.199219 19.09375 21.199219 18.601562 21.199219 17.28125 20.121094 16.199219 18.800781 16.199219zM18.960938 19.160156C18.960938 19.039062 19 18.960938 19.078125 18.878906 19.160156 18.800781 19.238281 18.761719 19.359375 18.761719 19.480469 18.761719 19.558594 18.800781 19.640625 18.878906L20.160156 19.398438C20.078125 19.519531 20 19.640625 19.917969 19.71875 19.839844 19.800781 19.71875 19.878906 19.601562 19.960938L19.078125 19.441406C19 19.359375 18.960938 19.28125 18.960938 19.160156zM17.199219 18.601562C17.199219 17.71875 17.921875 17 18.800781 17 19.667969 17 20.375 17.699219 20.398438 18.558594L20.199219 18.359375C19.761719 17.878906 19 17.878906 18.519531 18.359375 18.28125 18.558594 18.160156 18.878906 18.160156 19.199219 18.160156 19.519531 18.28125 19.800781 18.519531 20.039062L18.675781 20.195312C17.851562 20.128906 17.199219 19.4375 17.199219 18.601562zM12 16.199219C11.027344 16.199219 10.1875 16.785156 9.8125 17.621094 9.808594 17.628906 9.804688 17.632812 9.800781 17.640625 9.796875 17.648438 9.792969 17.65625 9.792969 17.664062 9.667969 17.949219 9.601562 18.269531 9.601562 18.601562 9.601562 18.933594 9.667969 19.25 9.792969 19.539062 9.792969 19.542969 9.796875 19.550781 9.800781 19.558594 9.808594 19.601562 9.828125 19.636719 9.851562 19.667969 10.246094 20.457031 11.0625 21 12 21 13.320312 21 14.398438 19.921875 14.398438 18.601562 14.398438 17.28125 13.320312 16.199219 12 16.199219zM10.449219 19C10.445312 18.980469 10.441406 18.960938 10.4375 18.941406 10.429688 18.832031 10.398438 18.703125 10.398438 18.601562 10.398438 18.460938 10.417969 18.328125 10.449219 18.199219L11.199219 18.199219C11.441406 18.199219 11.601562 18.359375 11.601562 18.601562 11.601562 18.839844 11.441406 19 11.199219 19zM12 20.199219C11.597656 20.199219 11.226562 20.046875 10.945312 19.800781L11.199219 19.800781C11.878906 19.800781 12.398438 19.28125 12.398438 18.601562 12.398438 17.921875 11.878906 17.398438 11.199219 17.398438L10.945312 17.398438C11.226562 17.152344 11.597656 17 12 17 12.878906 17 13.601562 17.71875 13.601562 18.601562 13.601562 19.480469 12.878906 20.199219 12 20.199219zM4.800781 16.199219C3.480469 16.199219 2.398438 17.28125 2.398438 18.601562 2.398438 19.574219 2.988281 20.417969 3.832031 20.792969 3.832031 20.796875 3.835938 20.796875 3.839844 20.800781 3.847656 20.804688 3.855469 20.804688 3.863281 20.808594 4.152344 20.929688 4.46875 21 4.800781 21 5.132812 21 5.449219 20.929688 5.738281 20.808594 5.746094 20.804688 5.753906 20.804688 5.761719 20.800781 5.800781 20.789062 5.835938 20.769531 5.867188 20.746094 6.65625 20.351562 7.199219 19.535156 7.199219 18.601562 7.199219 17.28125 6.121094 16.199219 4.800781 16.199219zM5.199219 20.148438C5.070312 20.183594 4.9375 20.199219 4.800781 20.199219 4.660156 20.199219 4.527344 20.183594 4.398438 20.148438L4.398438 19.398438C4.398438 19.160156 4.558594 19 4.800781 19 5.039062 19 5.199219 19.160156 5.199219 19.398438zM6 19.65625L6 19.398438C6 18.71875 5.480469 18.199219 4.800781 18.199219 4.121094 18.199219 3.601562 18.71875 3.601562 19.398438L3.601562 19.65625C3.351562 19.371094 3.199219 19.003906 3.199219 18.601562 3.199219 17.71875 3.921875 17 4.800781 17 5.679688 17 6.398438 17.71875 6.398438 18.601562 6.398438 19.003906 6.25 19.371094 6 19.65625zM6 19.65625"/>
</svg>

<svg xmlns="http://www.w3.org/2000/svg" width="32" height="32" viewBox="0 0 24 24">
    <path d="M22 1H2C.879 1 0 1.879 0 3v18c0 1.121.879 2 2 2h20c1.121 0 2-.879 2-2V3c0-1.121-.879-2-2-2zm1.2 20c0 .68-.52 1.2-1.2 1.2H2c-.68 0-1.2-.52-1.2-1.2V3c0-.68.56-1.2 1.2-1.2h20c.68 0 1.2.52 1.2 1.2zm0 0"/>
    <path d="M20.8 3H3.2C2.52 3 2 3.52 2 4.2v9.6c0 .68.52 1.2 1.2 1.2h17.6c.68 0 1.2-.52 1.2-1.2V4.2c0-.68-.52-1.2-1.2-1.2zM10.04 14.2c.198-.919 1-1.598 1.96-1.598s1.762.68 1.96 1.597zm11.16-.4c0 .24-.16.4-.4.4h-6.027a2.79 2.79 0 0 0-1.109-1.86l2.89-5.297a11.891 11.891 0 0 1 3.208 1.879c.16.117.437.078.558-.082.121-.16.078-.442-.082-.559a13.197 13.197 0 0 0-3.304-1.933l.625-1.149c.12-.199.043-.437-.16-.558-.2-.082-.438-.04-.56.16l-.679 1.261A13.215 13.215 0 0 0 12 5.399c-2.96 0-5.879 1.043-8.238 2.922-.203.121-.203.399-.082.559.082.121.199.16.32.16.078 0 .2 0 .238-.078 2.242-1.762 5-2.762 7.762-2.762 1.309 0 2.578.192 3.777.567l-2.808 5.203c-.301-.11-.63-.168-.969-.168a2.779 2.779 0 0 0-2.773 2.398H3.199c-.238 0-.398-.16-.398-.398V4.199c0-.199.199-.398.398-.398h17.602c.238 0 .398.16.398.398zm0 0M18.8 16.2a2.41 2.41 0 0 0-2.402 2.402 2.407 2.407 0 0 0 3.157 2.277c.054-.008.086-.031.086 0 .32-.117.597-.277.84-.52.105-.129.214-.27.308-.422.258-.382.41-.843.41-1.335a2.407 2.407 0 0 0-2.398-2.403zm.16 2.96c0-.12.04-.2.118-.281a.371.371 0 0 1 .281-.117c.121 0 .2.039.282.117l.52.52c-.083.12-.161.242-.243.32-.078.082-.2.16-.316.242l-.524-.52a.371.371 0 0 1-.117-.28zm-1.76-.558c0-.883.722-1.602 1.6-1.602.868 0 1.575.7 1.598 1.559l-.199-.2c-.437-.48-1.199-.48-1.68 0-.238.2-.359.52-.359.84 0 .32.121.602.36.84l.156.156a1.607 1.607 0 0 1-1.477-1.593zm0 0M12 16.2c-.973 0-1.813.585-2.188 1.421-.003.008-.007.012-.011.02a2.339 2.339 0 0 0-.2.96c0 .333.067.649.192.938 0 .004.004.012.008.02a.257.257 0 0 0 .05.109A2.405 2.405 0 0 0 12 21a2.404 2.404 0 0 0 2.398-2.398A2.407 2.407 0 0 0 12 16.199zM10.45 19l-.012-.059c-.008-.109-.04-.238-.04-.34 0-.14.02-.273.051-.402h.75c.242 0 .403.16.403.403 0 .238-.16.398-.403.398zM12 20.2c-.402 0-.773-.153-1.055-.4h.254c.68 0 1.2-.519 1.2-1.198 0-.68-.52-1.204-1.2-1.204h-.254A1.603 1.603 0 0 1 12 17c.879 0 1.602.719 1.602 1.602 0 .878-.723 1.597-1.602 1.597zm0 0M4.8 16.2a2.41 2.41 0 0 0-2.402 2.402c0 .972.59 1.816 1.434 2.191 0 .004.004.004.008.008.008.004.015.004.023.008.29.12.606.191.938.191.332 0 .648-.07.937-.191.008-.004.016-.004.024-.008a.339.339 0 0 0 .105-.055A2.404 2.404 0 0 0 7.2 18.602a2.407 2.407 0 0 0-2.398-2.403zm.4 3.948c-.13.036-.263.051-.4.051-.14 0-.273-.015-.402-.05v-.75c0-.239.16-.399.403-.399.238 0 .398.16.398.398zm.8-.492v-.258c0-.68-.52-1.199-1.2-1.199-.679 0-1.198.52-1.198 1.2v.257a1.594 1.594 0 0 1-.403-1.054c0-.883.723-1.602 1.602-1.602.879 0 1.597.719 1.597 1.602 0 .402-.148.77-.398 1.054zm0 0"/>
</svg>
